X:247
T: L'amour de moy
T: Manuscript de Bayeux
R:Chanson
Z:Transcrit et/ou corrigé par B@D - 2006-04-24
Z:Pour toute observation mailto:-@-
M: C
K: G
%%staves [1 | 2]
V: 1
L: 1/4
d2 d d|G3 G|B2 e2|d3 c|BA/G/ AA|G4|
g2 gg|a2>g2|fe/d/ ee|d4|e2ee|g>fee|
dc/B/ cc|B2>B2|d2>d2|G2>G2|B2 e2|d2>c2|
BA/G/ AA|G4|g2 gg|a2>g2|fe/d/ ee|e4|
e2 ee|d2>c2|BA/G/ AA|[1 G4 :| [2 G4||
V: 2
L: 1/4
B c/B/ A B/A/|G2>d2|fg/f/ ef/e/|[dB]cBA|BA/G/ A/G/ A/F/|G4|
B2BB|d2>e2|fe/d/ e/d/e/^c/|dcBA|c2 cc|B>d cc|
Bc/B/ A/B/ c/A/|B2>B2|B2>A2|G2>G2|BA/B/ cB/A/|d2>c2|
BA/G/ A/G/ A/F/|G/F/ G/A/ B/A/ B/c/|B2 BB|d2>d2|fe/d/ ed/^c/|d4|
ce/f/ g/e/ g/a/|b/d/ G/B/ A/B/ c/A/|B A/G/ A/G/ A/F/|[1 G/F/ G/A/ B/A/ B/c/ :| [2 B4 ||




%%header "$P0	 $IR 	$P1"
%%footer $D - Éditions Galouvielle - 2009 - À usage librement privé dans le cadre familial

